src/images/icons/location.svg

<svg width="40" height="40" viewBox="0 0 40 40" fill="none" xmlns="http://www.w3.org/2000/svg">
<path d="M39.9414 36.1446L33.5323 20.7449C33.411 20.4535 33.1265 20.2637 32.811 20.2637H29.2382C30.7549 17.7838 32.1283 15.5351 32.1851 15.4318C32.8751 14.1794 33.2399 12.7565 33.2399 11.3168C33.2399 6.60627 29.4072 2.77393 24.6962 2.77393C19.9851 2.77393 16.1525 6.60627 16.1525 11.3168C16.1525 12.7565 16.5173 14.1794 17.2069 15.4308C17.2639 15.5347 18.6375 17.7835 20.1542 20.2636H16.2164C15.785 20.2636 15.4351 20.6134 15.4351 21.045C15.4351 21.4765 15.785 21.8263 16.2164 21.8263H21.1101C21.4794 22.4299 21.8426 23.0234 22.1834 23.5803H15.119H7.88548C7.56694 23.5803 7.28027 23.7737 7.16105 24.069L5.89922 27.1935C5.88696 27.2237 5.8761 27.2558 5.86774 27.2875C5.42325 28.976 4.46911 30.0804 3.03188 30.5701C2.64568 30.7017 2.27385 30.7721 1.95109 30.8078L5.6885 21.8263H9.34255C9.77399 21.8263 10.1239 21.4765 10.1239 21.045C10.1239 20.6134 9.77399 20.2636 9.34255 20.2636H5.16729C4.85172 20.2636 4.56716 20.4534 4.44598 20.7448L0.0581199 31.2894C-0.101112 31.672 0.0790592 32.1259 0.453465 32.2992L10.7945 37.1519C10.8978 37.2003 11.0132 37.2259 11.1272 37.2259H39.2201C39.7673 37.2261 40.1521 36.6508 39.9414 36.1446ZM17.7151 11.3169C17.7151 7.46798 20.8468 4.33663 24.6962 4.33663C28.5455 4.33663 31.6773 7.46798 31.6773 11.3169C31.6773 12.4914 31.3806 13.6515 30.8189 14.6731C30.7045 14.8699 25.0701 24.0818 24.6963 24.6924C24.5668 24.4809 18.6884 14.8705 18.5736 14.6732C18.0119 13.6522 17.7151 12.4918 17.7151 11.3169ZM24.0299 26.5967C24.1719 26.8286 24.4243 26.97 24.6962 26.97C24.9681 26.97 25.2206 26.8286 25.3625 26.5967C25.4548 26.4459 26.2062 25.219 26.2528 25.143H29.7153L30.6752 27.4867H27.9227C27.2614 27.4867 26.5963 27.6369 25.9993 27.9211L23.3914 29.1624C23.0029 29.3474 22.57 29.4451 22.1396 29.4451H21.0455C20.4025 29.4451 19.7539 29.5876 19.1698 29.8572L13.7006 32.3819H9.95878L9.68282 31.8329L10.7938 29.5267C10.9549 29.1923 11.2987 28.9763 11.6699 28.9763H12.2905C13.2962 28.9763 14.2072 28.3813 14.6116 27.4605L15.6292 25.143H23.1396C23.1397 25.143 23.9378 26.4463 24.0299 26.5967ZM32.6802 32.3819H17.4288L19.8247 31.2759C20.2049 31.1004 20.6271 31.0077 21.0455 31.0077H22.1396C22.8009 31.0077 23.4661 30.8574 24.063 30.5732L26.6708 29.3319C27.0595 29.1469 27.4923 29.0491 27.9226 29.0491H31.3152L32.6802 32.3819ZM8.41255 25.143H13.9225L13.1808 26.8322C13.0257 27.1855 12.6763 27.4137 12.2905 27.4137H11.6699C10.7024 27.4137 9.80603 27.9769 9.38607 28.8485L8.7972 30.0709L7.48045 27.4511L8.41255 25.143ZM6.70617 29.3911L9.41428 34.7782L3.57239 32.0367C4.59646 31.6804 5.84781 30.9377 6.70617 29.3911ZM11.6084 35.6634L10.7442 33.9445H13.8722H33.8446C34.3898 33.9445 34.775 33.3736 34.5677 32.867L30.9627 24.0655C30.8425 23.7721 30.5568 23.5803 30.2397 23.5803H27.209C27.5499 23.0234 27.913 22.43 28.2824 21.8263H32.2898L38.0487 35.6633H11.6084V35.6634Z" fill="white"/>
<path d="M24.6949 15.2735H24.6951H24.6973H24.6976C26.878 15.2727 28.6519 13.4978 28.6519 11.3168C28.6519 9.1356 26.8773 7.36108 24.6961 7.36108C22.5149 7.36108 20.7404 9.1356 20.7404 11.3168C20.7404 13.4978 22.5144 15.2727 24.6949 15.2735ZM24.6962 8.92371C26.0158 8.92371 27.0893 9.99724 27.0893 11.3168C27.0893 12.6334 26.021 13.7055 24.7061 13.7108C24.6995 13.7107 24.6931 13.7107 24.6869 13.7108C23.3717 13.7057 22.3031 12.6335 22.3031 11.3168C22.3031 9.99724 23.3766 8.92371 24.6962 8.92371Z" fill="white"/>
<path d="M12.0607 21.3439C12.1884 21.6504 12.5078 21.8501 12.84 21.8243C13.1502 21.8002 13.4214 21.5904 13.5219 21.2962C13.7518 20.6225 12.9909 20.0106 12.3813 20.375C12.0536 20.5709 11.9137 20.9912 12.0607 21.3439Z" fill="white"/>
</svg>

<svg width="40" height="40" fill="none" xmlns="http://www.w3.org/2000/svg"><path d="m39.941 36.145-6.409-15.4a.781.781 0 0 0-.721-.481h-3.573c1.517-2.48 2.89-4.729 2.947-4.832a8.548 8.548 0 0 0 1.055-4.115c0-4.71-3.833-8.543-8.544-8.543-4.71 0-8.544 3.832-8.544 8.543 0 1.44.365 2.862 1.055 4.114.057.104 1.43 2.353 2.947 4.833h-3.938a.781.781 0 0 0 0 1.562h4.894l1.073 1.754H7.885a.781.781 0 0 0-.724.489L5.9 27.194a.785.785 0 0 0-.031.094c-.445 1.688-1.399 2.792-2.836 3.282a5.1 5.1 0 0 1-1.08.238l3.737-8.982h3.654a.781.781 0 0 0 0-1.562H5.167c-.315 0-.6.19-.721.48L.058 31.29a.79.79 0 0 0 .395 1.01l10.341 4.853a.79.79 0 0 0 .333.074H39.22a.789.789 0 0 0 .721-1.081ZM17.715 11.317c0-3.849 3.132-6.98 6.981-6.98a6.982 6.982 0 0 1 6.123 10.336c-.114.197-5.749 9.409-6.123 10.02-.13-.212-6.008-9.823-6.122-10.02a6.98 6.98 0 0 1-.859-3.356Zm6.315 15.28a.781.781 0 0 0 1.332 0l.89-1.454h3.463l.96 2.344h-2.752c-.662 0-1.327.15-1.924.434l-2.608 1.241a2.93 2.93 0 0 1-1.251.283h-1.095c-.643 0-1.291.143-1.875.412l-5.47 2.525H9.96l-.276-.55 1.11-2.305a.978.978 0 0 1 .877-.55h.62a2.536 2.536 0 0 0 2.322-1.517l1.017-2.317h7.51s.799 1.303.89 1.454Zm8.65 5.785H17.43l2.396-1.106c.38-.176.802-.268 1.22-.268h1.095c.66 0 1.326-.15 1.923-.435l2.608-1.241a2.93 2.93 0 0 1 1.252-.283h3.392l1.365 3.333ZM8.413 25.143h5.51l-.742 1.69a.972.972 0 0 1-.89.58h-.621c-.968 0-1.864.564-2.284 1.436l-.589 1.222-1.317-2.62.933-2.308Zm-1.707 4.248 2.708 5.387-5.842-2.741a5.636 5.636 0 0 0 3.134-2.646Zm4.902 6.272-.864-1.718h23.101a.79.79 0 0 0 .723-1.078l-3.605-8.801a.781.781 0 0 0-.723-.486h-3.031l1.073-1.754h4.008l5.759 13.837h-26.44Z" fill="#fff"/><path d="M24.695 15.274h.002a3.961 3.961 0 0 0 3.955-3.957 3.96 3.96 0 0 0-3.956-3.956 3.96 3.96 0 0 0-3.956 3.956 3.961 3.961 0 0 0 3.955 3.957Zm.001-6.35a2.396 2.396 0 0 1 2.393 2.393 2.396 2.396 0 0 1-2.402 2.394 2.397 2.397 0 0 1-2.384-2.394 2.396 2.396 0 0 1 2.393-2.393ZM12.06 21.344a.79.79 0 0 0 .78.48.79.79 0 0 0 .682-.528c.23-.674-.531-1.285-1.14-.921a.788.788 0 0 0-.321.969Z" fill="#fff"/></svg>
